src/actions/24/gnumeric-format-border-thick-outside.svg

<svg viewBox="0 0 24 24" xmlns="http://www.w3.org/2000/svg">
 <defs>
  <style type="text/css">.ColorScheme-Text {
        color:#2e3440;
      }</style>
 </defs>
 <path class="ColorScheme-Text" d="m12 3v8h-8v1h8v8h1v-8h8v-1h-8v-8h-1z" fill="currentColor" fill-opacity=".1"/>
 <path class="ColorScheme-Text" d="m5 4v7h7v-7h-7zm8 0v7h7v-7h-7zm-8 8v7h7v-7h-7zm8 0v7h7v-7h-7z" fill="currentColor" fill-opacity=".5"/>
 <path class="ColorScheme-Text" d="m4 3v1 15 1h1 15 1v-1-15-1h-1-15zm2 2h13v13h-13z" fill="currentColor"/>
</svg>

<svg xmlns="http://www.w3.org/2000/svg" viewBox="0 0 24 24">
  <defs id="defs3051">
    <style type="text/css" id="current-color-scheme">
      .ColorScheme-Text {
        color:#2e3440;
      }
      </style>
  </defs>
 <path 
     style="fill:currentColor;fill-opacity:0.1;stroke:none" 
     d="M 12 3 L 12 11 L 4 11 L 4 12 L 12 12 L 12 20 L 13 20 L 13 12 L 21 12 L 21 11 L 13 11 L 13 3 L 12 3 z "
     class="ColorScheme-Text"
     />
 <path 
     style="fill:currentColor;fill-opacity:0.5;stroke:none" 
     d="M 5 4 L 5 11 L 12 11 L 12 4 L 5 4 z M 13 4 L 13 11 L 20 11 L 20 4 L 13 4 z M 5 12 L 5 19 L 12 19 L 12 12 L 5 12 z M 13 12 L 13 19 L 20 19 L 20 12 L 13 12 z "
     class="ColorScheme-Text"
     />
 <path 
     style="fill:currentColor;fill-opacity:1.0;stroke:none" 
     d="m 4,3 0,1 0,15 0,1 1,0 15,0 1,0 0,-1 L 21,4 21,3 20,3 5,3 Z m 2,2 13,0 0,13 -13,0 z"
     class="ColorScheme-Text"
     />
</svg>
